dist/svg/u2122.svg

<?xml version="1.0" encoding="UTF-8"?><svg id="a" xmlns="http://www.w3.org/2000/svg" viewBox="0 0 40 40"><path d="M17.583,11.856v4.073h-4.598v12.215h-4.887V15.929H3.5v-4.073h14.083Zm11.497,16.288h-3.833l-2.012-6.707v6.707h-4.359V11.856h5.173l3.115,12.168,3.162-12.168h5.173V28.144h-4.359v-6.85l-2.061,6.85Z" fill="#313d4c"/><rect width="40" height="40" fill="none"/></svg>

<svg id="Layer_1" data-name="Layer 1" xmlns="http://www.w3.org/2000/svg" viewBox="0 0 40 40"><defs><style>.cls-1{fill:#313d4c;}.cls-2{fill:none;}</style></defs><path class="cls-1" d="M17.583,11.856v4.073h-4.6V28.144H8.1V15.929H3.5V11.856Zm11.5,16.288H25.247l-2.012-6.708v6.708H18.877V11.856H24.05l3.115,12.168,3.162-12.168H35.5V28.144H31.141V21.293Z"/><rect class="cls-2" width="40" height="40"/></svg>
